X: 1
T:Cherokee Shuffle - A
S:via PR
M:4/4
L:1/4
K:A
F/2G/2|:"A"AA/2B/2 AA/2B/2|"A"c/2B/2A "D"FE/2F/2|"A"AA/2B/2 c/2d/2e|
e|:"D"f/2e/2f/2g/2 a/2e/2f/2e/2|"A"e e/f/ e/c/ A|"D"f/2e/2f/2g/2 "A"ab|

